!!!OTL: Shang guangxi
!!!ARE: Asia, China,ÿHunan, Shaodong
!! I, 539
!!!SCT: C1466
!!!YEM: Copyright 1995, estate of Helmut Schaffrath.
**kern
*ICvox
*Ivox
*M2/4
*k[]
*C:
{8.ee
16cc
16ee
16gg
8cc
=1
8a
16a
16a
4a
=2
8gg
16ee
16gg
8.ee
16gg
=3
8.cc
16ee
4cc}
=4
{8cc
16a
16a
8a
16ee
16gg
=5
8.cc
16a
4a
=6
8ee
8a
16cc
16ee
8cc
=7
16cc
16a
4.a
=8
8e
16e
16e
4e}
==
!!!AGN: Shange. Jiaofu xinglu chang
!!!ONB: ESAC (Essen Associative Code) Database: HUANG
!!!AMT: simple duple
!!!AIN: vox
!!!EED: Helmut Schaffrath
!!!EEV: 1.0
*-
